;FLAVOR:Marlin
;TIME:2964.36
;Filament used:0.992288m
;Layer Height:0.1
;MINX:75.005
;MINY:82.047
;MINZ:0.1
;MAXX:124.995
;MAXY:117.943
;MAXZ:5.3
;OuterWall Time:435.931
;InnerWall Time:426.224
;Skin Time:813.482
;Support Time:0
;SkirtBrim Time:11.8332
;Infill Time:766.641
;Support Infills Time:0
;Combing Time:83.639
;Retraction Time:426.61
;PrimeTower Time:0
;;;;;;;;;;;;;;;;;;;;;;;;;;;;;;;;;;;;;;;;;;;;;;;;;;;;;;;;;;;;;;;;;;;;;;;;;
;Creality Print GCode Generated by CXEngine
;CRSLICE_GIT_HASH:6b8d75d
;Creality Print Version : V4.3.7.6619
;CXEngine Release Time:2023-09-20 15:19:09
;Gcode Generated Time:2026-01-12 13:53:30
;----------Machine Config--------------
;Machine Name:CR-200B
;Machine Height:200
;Machine Width:200
;Machine Depth:200
;Material Type:PLA
;Material Name:Generic-PLA_1.75
;Number of Extruders:1
;ExtruderParams[0] Nozzle Diameter:1000
;----------Profile Config---------------
;Wall Thickness:0.8
;Top/Bottom Thickness:0.5
;Out Wall Line Width:0.4
;Inner Wall Line Width:0.4
;Inital Height:100
;Wall Line Count:2
;Infill Line Distance:2
;Infill Pattern:grid
;Infill Sparse Density:20
;Infill Wipe Distance:0
;Print Temperature:210
;Bed Temperature:50
;Support Enable:false
;Support Density:30
;Support Angle:60
;Adhesion Type:skirt
;machine is belt:false
;machine belt offset:10
;machine belt offset Y:0
;Raft Base Line Spacing:1.6
;Wait Heatup Sync:true
;Enable Ironing:false
;Material Type:PLA
;Max volumetric speed:18
;Material Diameter:1.75
;Material Density:1.24
;Filament Cost:20
;Filament Weight:1000
;Preview Img Type:png
;Screen Size:Sermoon D3
;----------Shell Config----------------
;Outer Wall Wipe Distance:200
;Outer Inset First:false
;Infill Before Walls:false
;Infill Overlap:0.16
;Fill Gaps Between Walls:everywhere
;Minimum Infill Area:15
;Top Surface Skin Layer:0
;Top Layers:4
;Z Seam Alignment:sharpest_corner
;Seam Corner Preference:z_seam_corner_inner
;Z Seam X:110
;Z Seam Y:220
;Horizontal Expansion:0
;Top/Bottom Pattern:zigzag
;Ironing Pattern:zigzag
;Vase Model:false
;----------Support Config----------------
;Support Type:everywhere
;Support Pattern:zigzag
;Support Infill Layer Thickness:0.15
;Minimum Support Area:1
;Enable Support Roof:true
;Support Roof Thickness:0.8
;Support Roof Pattern:lines
;Connect Support Lines:0
;Connect Support ZigZags:1
;Minimum Support X/Y Distance:0.2
;Support Line Distance:1.33
; ---------PrintSpeed & Travel----------
;Enable Print Cool:true
;Avoid Printed Parts Traveling:true
;Enable Retraction:true
;Retraction Distance:4
;Retraction Speed:40
;Retraction Prime Speed:40
;Maximum Retraction Count:100
;Minimum Extrusion Distance Window:1
;Z Hop When Retracted:false
;Z Hop Height:0.2
;Retract Before Outer Wall:true

;Outer Wall Speed:25
;Inner Wall Speed:25
;Infill Speed:50
;Top/Bottom Speed:30
;Travel Speed:100
;Initial Layer Speed:15
;Skirt/Brim Speed:25
;Prime Tower Speed:60
;Outer Wall Acceleration:3000
;Inner Wall Acceleration:3000
;Infill Acceleration:3000
;Top/Bottom Acceleration:3000
;Travel Acceleration:500
;Initial Layer Print Acceleration:3000
;Initial Layer Travel Acceleration:3000
;Skirt/Brim Acceleration:3000
;Combing Mode:noskin
; --------SpecialModel&Mesh Fixes--------
;Union Overlapping Volum:true
;Remove All Holes:false
;Maximum Travel Resolution:0.25
;Maximum Deviation:0.05
;Maximum Model Angle:0.872665
;IS Mold Print:false
;Make Overhang Printable:false
;Enable Coasting:false
;Coasting Volumes:0.064
;Coasting Speed:0.9
;Raft AirGap:0.25
;Layer0 ZOverLap:0.13
;Adaptive Layers:0
;---------------------End of Head--------------------------
M140 S50
M105
M190 S50
M104 S210
M82 ;absolute extrusion mode
M220 S100 ;Reset Feedrate
M221 S100 ;Reset Flowrate

G28 ;Home

G92 E0 ;Reset Extruder
G1 Z2.0 F3000 ;Move Z Axis up
G1 X10.1 Y20 Z0.28 F5000.0 ;Move to start position
M109 S210.000000
G1 X10.1 Y145.0 Z0.28 F1500.0 E15 ;Draw the first line
G1 X10.4 Y145.0 Z0.28 F5000.0 ;Move to side a little
G1 X10.4 Y20 Z0.28 F1500.0 E30 ;Draw the second line
G92 E0  ;Reset Extruder
G1 E-1.0000 F1800 ;Retract a bit
G1 Z2.0 F3000 ;Move Z Axis up
G1 E0.0000 F1800 

G92 E0
G92 E0
G1 F2400 E-4
;LAYER_COUNT:53

;LAYER:0
M106 S0
M106 P1 S255
G0 F1500 X78.988 Y85.361 Z0.1
;TYPE:SKIRT
G1 F2400 E0
G1 F1500 X78.62 Y85.756 E0.00988
G1 X78.313 Y86.202 E0.01978
G1 X77.982 Y86.769 E0.03179
G1 X75.711 Y90.777 E0.11606
G1 X75.439 Y91.279 E0.12651
G1 X75.268 Y91.642 E0.13385
G1 X75.102 Y92.156 E0.14373
G1 X75.014 Y92.69 E0.15363
G1 X75.005 Y93.231 E0.16352
G1 X75.078 Y94.486 E0.18652
G1 X75.217 Y98.073 E0.25219
G1 X75.235 Y100.807 E0.3022
G1 X75.175 Y103.53 E0.35203
G1 X75.037 Y106.25 E0.40185
G1 X75.006 Y106.741 E0.41085
G1 X75.005 Y107.186 E0.41899
G1 X75.077 Y107.722 E0.42888
G1 X75.226 Y108.242 E0.43878
G1 X75.451 Y108.734 E0.44867
G1 X75.769 Y109.313 E0.46076
G1 X77.844 Y112.978 E0.5378
G1 X78.334 Y113.806 E0.5554
G1 X78.486 Y114.041 E0.56052
G1 X78.828 Y114.459 E0.5704
G1 X79.228 Y114.823 E0.58029
G1 X79.678 Y115.124 E0.5902
G1 X80.166 Y115.355 E0.60007
G1 X80.684 Y115.512 E0.60998
G1 X81.219 Y115.59 E0.61987
G1 X81.763 Y115.629 E0.62984
G1 X82.362 Y115.66 E0.64081
G1 X85.068 Y115.867 E0.69046
G1 X87.778 Y116.152 E0.74031
G1 X90.507 Y116.517 E0.79067
G1 X93.151 Y116.948 E0.83968
G1 X96.994 Y117.69 E0.91128
G1 X97.87 Y117.815 E0.92747
G1 X98.526 Y117.883 E0.93953
G1 X99.37 Y117.93 E0.95499
G1 X99.844 Y117.943 E0.96367
G1 X100.709 Y117.926 E0.97949
G1 X101.493 Y117.881 E0.99386
G1 X102.172 Y117.809 E1.00635
G1 X103.032 Y117.684 E1.02225
G1 X104.027 Y117.488 E1.0408
G1 X107.873 Y116.77 E1.11237
G1 X110.574 Y116.361 E1.16234
G1 X113.272 Y116.03 E1.21207
G1 X115.992 Y115.774 E1.26204
G1 X118.764 Y115.592 E1.31286
G1 X119.082 Y115.557 E1.31871
G1 X119.609 Y115.436 E1.32861
G1 X120.112 Y115.238 E1.33849
G1 X120.581 Y114.968 E1.34839
G1 X121.004 Y114.632 E1.35828
G1 X121.374 Y114.237 E1.36818
G1 X121.681 Y113.792 E1.37807
G1 X122.057 Y113.151 E1.39166
G1 X124.289 Y109.211 E1.4745
G1 X124.561 Y108.709 E1.48494
G1 X124.732 Y108.346 E1.49228
G1 X124.898 Y107.832 E1.50216
G1 X124.986 Y107.298 E1.51206
G1 X124.995 Y106.757 E1.52196
G1 X124.922 Y105.502 E1.54496
G1 X124.783 Y101.915 E1.61062
G1 X124.765 Y99.181 E1.66064
G1 X124.825 Y96.458 E1.71046
G1 X124.963 Y93.738 E1.76028
G1 X124.994 Y93.248 E1.76926
G1 X124.995 Y92.805 E1.77737
G1 X124.924 Y92.269 E1.78726
G1 X124.775 Y91.749 E1.79715
G1 X124.55 Y91.257 E1.80705
G1 X124.232 Y90.677 E1.81915
G1 X122.105 Y86.923 E1.89808
G1 X121.666 Y86.182 E1.91384
G1 X121.512 Y85.944 E1.91902
G1 X121.169 Y85.526 E1.92891
G1 X120.769 Y85.163 E1.93879
G1 X120.319 Y84.862 E1.9487
G1 X119.83 Y84.632 E1.95858
G1 X119.312 Y84.475 E1.96848
G1 X118.777 Y84.397 E1.97837
G1 X118.23 Y84.358 E1.98841
G1 X117.514 Y84.319 E2.00152
G1 X114.775 Y84.105 E2.05178
G1 X112.102 Y83.821 E2.10095
G1 X109.4 Y83.456 E2.15083
G1 X106.68 Y83.01 E2.20125
G1 X103.611 Y82.411 E2.25845
G1 X102.787 Y82.265 E2.27376
G1 X102.284 Y82.19 E2.28306
G1 X101.433 Y82.105 E2.29871
G1 X100.636 Y82.056 E2.31332
G1 X100.013 Y82.047 E2.32471
G1 X99.409 Y82.054 E2.33576
G1 X98.434 Y82.115 E2.35363
G1 X98.013 Y82.155 E2.36137
G1 X97.11 Y82.282 E2.37805
G1 X96.467 Y82.395 E2.38999
G1 X95.726 Y82.547 E2.40383
G1 X92.055 Y83.227 E2.47213
G1 X89.368 Y83.634 E2.52184
G1 X86.666 Y83.964 E2.57164
G1 X83.942 Y84.219 E2.62169
G1 X81.237 Y84.395 E2.67127
G1 X80.909 Y84.431 E2.67731
G1 X80.382 Y84.554 E2.68721
G1 X79.879 Y84.753 E2.6971
G1 X79.411 Y85.024 E2.707
G1 X78.988 Y85.361 E2.71689
G0 X79.334 Y85.641
G1 X78.983 Y86.007 E2.72617
G1 X78.693 Y86.424 E2.73546
G1 X78.342 Y87.026 E2.74821
G1 X76.062 Y91.051 E2.83283
G1 X75.826 Y91.488 E2.84191
G1 X75.712 Y91.72 E2.84664
G1 X75.545 Y92.199 E2.85592
G1 X75.455 Y92.698 E2.8652
G1 X75.444 Y93.205 E2.87447
G1 X75.515 Y94.429 E2.8969
G1 X75.657 Y98.084 E2.96381
G1 X75.675 Y100.813 E3.01374
G1 X75.615 Y103.527 E3.0634
G1 X75.476 Y106.278 E3.11379
G1 X75.445 Y106.769 E3.12279
G1 X75.44 Y107.066 E3.12822
G1 X75.495 Y107.57 E3.13749
G1 X75.628 Y108.06 E3.14678
G1 X75.837 Y108.522 E3.15606
G1 X76.175 Y109.138 E3.16891
G1 X78.259 Y112.816 E3.24624
G1 X78.713 Y113.582 E3.26253
G1 X79.042 Y114.04 E3.27285
G1 X79.402 Y114.397 E3.28212
G1 X79.813 Y114.693 E3.29139
G1 X80.266 Y114.921 E3.30066
G1 X80.749 Y115.075 E3.30994
G1 X81.251 Y115.152 E3.31923
G1 X81.786 Y115.19 E3.32904
G1 X82.378 Y115.221 E3.33988
G1 X85.146 Y115.433 E3.39067
G1 X87.81 Y115.712 E3.43967
G1 X90.569 Y116.081 E3.49059
G1 X93.233 Y116.515 E3.53996
G1 X97.077 Y117.258 E3.61158
G1 X98.01 Y117.389 E3.62882
G1 X98.551 Y117.444 E3.63876
G1 X99.382 Y117.49 E3.65399
G1 X100.025 Y117.503 E3.66575
G1 X100.698 Y117.486 E3.67807
G1 X101.447 Y117.443 E3.69179
G1 X102.126 Y117.371 E3.70428
G1 X102.947 Y117.252 E3.71946
G1 X103.957 Y117.053 E3.73829
G1 X107.789 Y116.338 E3.8096
G1 X110.522 Y115.923 E3.86017
G1 X113.214 Y115.594 E3.90978
G1 X115.958 Y115.335 E3.9602
G1 X118.735 Y115.153 E4.01111
G1 X119.327 Y115.058 E4.02208
G1 X119.806 Y114.894 E4.03134
G1 X120.254 Y114.656 E4.04062
G1 X120.659 Y114.35 E4.0499
G1 X121.011 Y113.985 E4.05918
G1 X121.301 Y113.569 E4.06846
G1 X121.702 Y112.886 E4.08294
G1 X123.907 Y108.994 E4.16477
G1 X124.174 Y108.5 E4.17505
G1 X124.288 Y108.268 E4.17977
G1 X124.455 Y107.789 E4.18905
G1 X124.545 Y107.29 E4.19833
G1 X124.556 Y106.783 E4.20761
G1 X124.485 Y105.559 E4.23003
G1 X124.343 Y101.904 E4.29695
G1 X124.325 Y99.175 E4.34687
G1 X124.385 Y96.461 E4.39653
G1 X124.524 Y93.71 E4.44692
G1 X124.555 Y93.22 E4.4559
G1 X124.56 Y92.925 E4.4613
G1 X124.505 Y92.421 E4.47057
G1 X124.373 Y91.931 E4.47985
G1 X124.164 Y91.469 E4.48913
G1 X123.825 Y90.85 E4.50204
G1 X121.758 Y87.202 E4.57874
G1 X121.287 Y86.407 E4.59564
G1 X120.956 Y85.946 E4.60603
G1 X120.596 Y85.589 E4.6153
G1 X120.184 Y85.293 E4.62458
G1 X119.731 Y85.066 E4.63385
G1 X119.247 Y84.912 E4.64314
G1 X118.746 Y84.836 E4.65241
G1 X118.142 Y84.794 E4.66349
G1 X117.499 Y84.76 E4.67526
G1 X114.763 Y84.546 E4.72547
G1 X112.033 Y84.256 E4.77569
G1 X109.336 Y83.891 E4.82547
G1 X106.591 Y83.441 E4.87636
G1 X103.474 Y82.833 E4.93445
G1 X102.722 Y82.7 E4.94842
G1 X102.044 Y82.604 E4.96095
G1 X101.392 Y82.543 E4.97293
G1 X100.63 Y82.496 E4.98689
G1 X100.007 Y82.487 E4.99829
G1 X99.415 Y82.494 E5.00912
G1 X98.475 Y82.553 E5.02635
G1 X97.897 Y82.612 E5.03698
G1 X97.173 Y82.717 E5.05036
G1 X96.555 Y82.826 E5.06184
G1 X95.788 Y82.984 E5.07617
G1 X92.143 Y83.659 E5.14398
G1 X89.414 Y84.071 E5.19447
G1 X86.723 Y84.4 E5.24406
G1 X83.977 Y84.658 E5.29452
G1 X81.265 Y84.834 E5.34423
G1 X80.665 Y84.93 E5.35535
G1 X80.185 Y85.096 E5.36464
G1 X79.738 Y85.335 E5.37391
G1 X79.334 Y85.641 E5.38318
;;retract;;
G1 F2400 E1.38318
;MESH:0_0
G0 F1500 X80.771 Y87.923
G0 X81.712 Y88.455
G0 X84.482 Y88.834
G0 X88.28 Y88.852
G0 X87.903 Y89.302
G0 X87.63 Y89.637
G1 F2400 E5.38318
G0 F1500 X87.719 Y89.719
;TYPE:WALL-INNER
G1 F900 X87.222 Y90.347 E5.3971
G1 X86.759 Y91 E5.41101
G1 X86.242 Y91.819 E5.42784
G1 X85.947 Y92.356 E5.43849
G1 X79.782 Y92.356 E5.54563
G1 X81.854 Y88.698 E5.61869
G1 X88.658 Y88.698 E5.73693
G1 X88.36 Y88.996 E5.74425
G1 X87.719 Y89.719 E5.76104
;;retract;;
G1 F2400 E1.76104
G0 F1500 X88.048 Y90.011
;TYPE:WALL-OUTER
G1 F2400 E5.76104
G1 F900 X87.567 Y90.62 E5.77382
G1 X87.118 Y91.254 E5.78661
G1 X86.614 Y92.054 E5.80218
G1 X86.208 Y92.796 E5.8161
G1 X79.027 Y92.796 E5.93433
G1 X81.597 Y88.258 E6.02019
G1 X89.771 Y88.258 E6.15477
G1 X89.382 Y88.6 E6.16329
G1 X88.699 Y89.278 E6.17914
G1 X88.048 Y90.011 E6.19528
G0 F1500 X87.925 Y90.167
;;retract;;
G1 F2400 E2.19528
G0 F1500 X87.391 Y89.746
G0 X87.128 Y90.272
G1 F2400 E6.19528
G0 F1500 X86.894 Y90.084
;TYPE:SKIN
G1 F900 X87.405 Y89.44 E6.21032
G1 X87.691 Y89.118 E6.2182
G1 X82.098 Y89.118 E6.32051
G1 X80.503 Y91.936 E6.37974
G1 X85.699 Y91.936 E6.47479
G1 X85.856 Y91.646 E6.48083
G1 X86.415 Y90.759 E6.50001
G1 X86.894 Y90.084 E6.51515
G1 X87.047 Y89.536
G1 X86.848 Y89.337 E6.5203
G1 X86.771 Y89.883
G1 X86.226 Y89.337 E6.53441
G1 X85.603 Y89.337
G1 X86.51 Y90.243 E6.55786
G1 X86.252 Y90.607
G1 X84.981 Y89.337 E6.59073
G1 X84.359 Y89.337
G1 X86.011 Y90.989 E6.63347
G1 X85.77 Y91.37
G1 X83.736 Y89.337 E6.68607
G1 X83.114 Y89.337
G1 X85.492 Y91.715 E6.74759
G1 X84.87 Y91.715
G1 X82.492 Y89.337 E6.80911
G1 X82.097 Y89.564
G1 X84.248 Y91.715 E6.86476
G1 X83.625 Y91.715
G1 X81.872 Y89.961 E6.91012
G1 X81.647 Y90.359
G1 X83.003 Y91.715 E6.9452
G1 X82.381 Y91.715
G1 X81.422 Y90.756 E6.97001
G1 X81.197 Y91.153
G1 X81.759 Y91.715 E6.98455
G1 X81.136 Y91.715
G1 X80.972 Y91.55 E6.98881
;;retract;;
G1 F2400 E2.98881
G0 F1500 X80.521 Y91.294
G0 X80.307 Y91.683
G0 X80.055 Y92.196
G0 X83.647 Y92.218
G0 X86.091 Y92.599
G0 X87.138 Y94.772
G0 X86.603 Y100.295
G1 F2400 E6.98881
G0 F1500 X86.376 Y100.291
;TYPE:WALL-INNER
G1 F860.9 X86.392 Y99.181 E7.00898
G1 X86.511 Y98.064 E7.02939
G1 F866.5 X86.628 Y97.385 E7.04182
G1 F868.4 X86.71 Y96.979 E7.04928
G1 F862.7 X87 Y95.897 E7.06959
G1 F859 X87.372 Y94.873 E7.08943
G1 F864.6 X87.65 Y94.241 E7.10192
G1 F868.4 X87.84 Y93.842 E7.10988
G1 F857.1 X88.421 Y92.797 E7.13169
G1 F853.4 X89.003 Y91.948 E7.15056
G1 F864.6 X89.482 Y91.329 E7.16471
G1 F868.4 X89.688 Y91.079 E7.17055
G1 F859 X90.439 Y90.282 E7.19049
G1 F870.3 X90.685 Y90.051 E7.19655
G1 F864.6 X91.288 Y89.517 E7.21112
G1 F862.7 X91.942 Y89.007 E7.22616
G1 F870.3 X92.165 Y88.842 E7.23114
G1 F859 X93.095 Y88.245 E7.25127
G1 F870.3 X93.451 Y88.046 E7.25859
G1 F866.5 X94.079 Y87.722 E7.27135
G1 F859 X95.106 Y87.272 E7.29177
G1 F860.9 X96.156 Y86.92 E7.31189
G1 F868.4 X96.625 Y86.794 E7.32063
G1 F866.5 X97.237 Y86.65 E7.33198
G1 F862.7 X98.33 Y86.465 E7.35208
G1 X99.418 Y86.379 E7.37186
G1 F866.5 X100 Y86.37 E7.38237
G1 X100.546 Y86.378 E7.39222
G1 F860.9 X101.634 Y86.46 E7.41205
G1 X102.762 Y86.65 E7.43283
G1 F866.5 X103.375 Y86.794 E7.4442
G1 F868.4 X103.808 Y86.91 E7.45227
G1 F860.9 X104.908 Y87.277 E7.47334
G1 F859 X105.905 Y87.714 E7.49316
G1 F866.5 X106.549 Y88.046 E7.50624
G1 F870.3 X106.884 Y88.232 E7.51312
G1 F857.1 X107.877 Y88.868 E7.53464
G1 F851.6 X108.703 Y89.509 E7.55384
G1 F862.7 X109.286 Y90.023 E7.56793
G1 F870.3 X109.519 Y90.24 E7.57365
G1 F860.9 X110.283 Y91.049 E7.59387
G1 F872.2 X110.514 Y91.328 E7.60037
G1 F866.5 X110.993 Y91.942 E7.61442
G1 F857.1 X111.609 Y92.853 E7.63449
G1 F859 X112.155 Y93.83 E7.65487
G1 F868.4 X112.331 Y94.2 E7.66225
G1 F866.5 X112.61 Y94.832 E7.67472
G1 F859 X112.999 Y95.89 E7.69524
G1 F862.7 X113.285 Y96.959 E7.7153
G1 F870.3 X113.383 Y97.442 E7.72416
G1 F868.4 X113.488 Y98.052 E7.73531
G1 F860.9 X113.606 Y99.149 E7.75535
G1 X113.625 Y100.242 E7.77521
G1 F866.5 X113.597 Y100.846 E7.78613
G1 X113.557 Y101.372 E7.79565
G1 F859 X113.413 Y102.436 E7.8152
G1 X113.15 Y103.565 E7.83631
G1 F866.5 X112.961 Y104.194 E7.84816
G1 F868.4 X112.816 Y104.629 E7.85642
G1 F859 X112.41 Y105.632 E7.87612
G1 F857.1 X111.898 Y106.635 E7.89667
G1 F864.6 X111.477 Y107.339 E7.91151
G1 F868.4 X111.309 Y107.6 E7.9171
G1 F859 X110.664 Y108.481 E7.93698
G1 F870.3 X110.481 Y108.701 E7.94212
G1 F864.6 X109.933 Y109.32 E7.95708
G1 X109.347 Y109.907 E7.97208
G1 F870.3 X109.131 Y110.112 E7.97743
G1 F859 X108.268 Y110.827 E7.99784
G1 F868.4 X107.993 Y111.028 E8.00397
G1 F864.6 X107.373 Y111.452 E8.01756
G1 F857.1 X106.421 Y112.017 E8.03776
G1 F860.9 X105.414 Y112.499 E8.05804
G1 F870.3 X105.067 Y112.641 E8.06478
G1 F866.5 X104.38 Y112.897 E8.07801
G1 F860.9 X103.305 Y113.218 E8.0984
G1 F862.7 X102.219 Y113.438 E8.11849
G1 F868.4 X101.764 Y113.503 E8.12676
G1 F866.5 X101.137 Y113.573 E8.13815
G1 F862.7 X100.008 Y113.626 E8.15864
G1 X98.91 Y113.577 E8.17857
G1 F866.5 X98.295 Y113.511 E8.18973
G1 F868.4 X97.817 Y113.445 E8.19842
G1 F860.9 X96.721 Y113.224 E8.21873
G1 F859 X95.647 Y112.907 E8.23912
G1 F866.5 X94.993 Y112.665 E8.25171
G1 F868.4 X94.602 Y112.507 E8.25931
G1 F857.1 X93.528 Y111.993 E8.28103
G1 F853.4 X92.634 Y111.457 E8.30014
G1 F864.6 X92.009 Y111.031 E8.31382
G1 F866.5 X91.744 Y110.839 E8.31972
G1 F857.1 X90.876 Y110.118 E8.34031
G1 F870.3 X90.652 Y109.908 E8.34583
G1 F864.6 X90.079 Y109.334 E8.3605
G1 F862.7 X89.543 Y108.728 E8.37517
G1 F870.3 X89.347 Y108.496 E8.38063
