;FLAVOR:Marlin
;TIME:3383.97
;Filament used:0.99869m
;Layer Height:0.1
;MINX:75.005
;MINY:70.565
;MINZ:0.1
;MAXX:124.995
;MAXY:129.315
;MAXZ:16
;OuterWall Time:469.679
;InnerWall Time:426.371
;Skin Time:813.465
;Support Time:0
;SkirtBrim Time:13.2656
;Infill Time:763.695
;Support Infills Time:0
;Combing Time:89.8614
;Retraction Time:807.633
;PrimeTower Time:0
;;;;;;;;;;;;;;;;;;;;;;;;;;;;;;;;;;;;;;;;;;;;;;;;;;;;;;;;;;;;;;;;;;;;;;;;;
;Creality Print GCode Generated by CXEngine
;CRSLICE_GIT_HASH:6b8d75d
;Creality Print Version : V4.3.7.6619
;CXEngine Release Time:2023-09-20 15:19:09
;Gcode Generated Time:2026-01-12 15:30:28
;----------Machine Config--------------
;Machine Name:CR-200B
;Machine Height:200
;Machine Width:200
;Machine Depth:200
;Material Type:PLA
;Material Name:Generic-PLA_1.75
;Number of Extruders:1
;ExtruderParams[0] Nozzle Diameter:1000
;----------Profile Config---------------
;Wall Thickness:0.8
;Top/Bottom Thickness:0.5
;Out Wall Line Width:0.4
;Inner Wall Line Width:0.4
;Inital Height:100
;Wall Line Count:2
;Infill Line Distance:2
;Infill Pattern:grid
;Infill Sparse Density:20
;Infill Wipe Distance:0
;Print Temperature:210
;Bed Temperature:50
;Support Enable:false
;Support Density:30
;Support Angle:60
;Adhesion Type:skirt
;machine is belt:false
;machine belt offset:10
;machine belt offset Y:0
;Raft Base Line Spacing:1.6
;Wait Heatup Sync:true
;Enable Ironing:false
;Material Type:PLA
;Max volumetric speed:18
;Material Diameter:1.75
;Material Density:1.24
;Filament Cost:20
;Filament Weight:1000
;Preview Img Type:png
;Screen Size:Sermoon D3
;----------Shell Config----------------
;Outer Wall Wipe Distance:200
;Outer Inset First:false
;Infill Before Walls:false
;Infill Overlap:0.16
;Fill Gaps Between Walls:everywhere
;Minimum Infill Area:15
;Top Surface Skin Layer:0
;Top Layers:4
;Z Seam Alignment:sharpest_corner
;Seam Corner Preference:z_seam_corner_inner
;Z Seam X:110
;Z Seam Y:220
;Horizontal Expansion:0
;Top/Bottom Pattern:zigzag
;Ironing Pattern:zigzag
;Vase Model:false
;----------Support Config----------------
;Support Type:everywhere
;Support Pattern:zigzag
;Support Infill Layer Thickness:0.15
;Minimum Support Area:1
;Enable Support Roof:true
;Support Roof Thickness:0.8
;Support Roof Pattern:lines
;Connect Support Lines:0
;Connect Support ZigZags:1
;Minimum Support X/Y Distance:0.2
;Support Line Distance:1.33
; ---------PrintSpeed & Travel----------
;Enable Print Cool:true
;Avoid Printed Parts Traveling:true
;Enable Retraction:true
;Retraction Distance:4
;Retraction Speed:40
;Retraction Prime Speed:40
;Maximum Retraction Count:100
;Minimum Extrusion Distance Window:1
;Z Hop When Retracted:false
;Z Hop Height:0.2
;Retract Before Outer Wall:true

;Outer Wall Speed:25
;Inner Wall Speed:25
;Infill Speed:50
;Top/Bottom Speed:30
;Travel Speed:100
;Initial Layer Speed:15
;Skirt/Brim Speed:25
;Prime Tower Speed:60
;Outer Wall Acceleration:3000
;Inner Wall Acceleration:3000
;Infill Acceleration:3000
;Top/Bottom Acceleration:3000
;Travel Acceleration:500
;Initial Layer Print Acceleration:3000
;Initial Layer Travel Acceleration:3000
;Skirt/Brim Acceleration:3000
;Combing Mode:noskin
; --------SpecialModel&Mesh Fixes--------
;Union Overlapping Volum:true
;Remove All Holes:false
;Maximum Travel Resolution:0.25
;Maximum Deviation:0.05
;Maximum Model Angle:0.872665
;IS Mold Print:false
;Make Overhang Printable:false
;Enable Coasting:false
;Coasting Volumes:0.064
;Coasting Speed:0.9
;Raft AirGap:0.25
;Layer0 ZOverLap:0.13
;Adaptive Layers:0
;---------------------End of Head--------------------------
M140 S50
M105
M190 S50
M104 S210
M82 ;absolute extrusion mode
M220 S100 ;Reset Feedrate
M221 S100 ;Reset Flowrate

G28 ;Home

G92 E0 ;Reset Extruder
G1 Z2.0 F3000 ;Move Z Axis up
G1 X10.1 Y20 Z0.28 F5000.0 ;Move to start position
M109 S210.000000
G1 X10.1 Y145.0 Z0.28 F1500.0 E15 ;Draw the first line
G1 X10.4 Y145.0 Z0.28 F5000.0 ;Move to side a little
G1 X10.4 Y20 Z0.28 F1500.0 E30 ;Draw the second line
G92 E0  ;Reset Extruder
G1 E-1.0000 F1800 ;Retract a bit
G1 Z2.0 F3000 ;Move Z Axis up
G1 E0.0000 F1800 

G92 E0
G92 E0
G1 F2400 E-4
;LAYER_COUNT:160

;LAYER:0
M106 S0
M106 P1 S255
G0 F1500 X79 Y85.352 Z0.1
;TYPE:SKIRT
G1 F2400 E0
G1 F1500 X78.63 Y85.746 E0.00989
G1 X78.322 Y86.191 E0.01979
G1 X77.965 Y86.798 E0.03267
G1 X75.71 Y90.777 E0.11633
G1 X75.439 Y91.279 E0.12677
G1 X75.268 Y91.642 E0.13411
G1 X75.102 Y92.156 E0.14399
G1 X75.014 Y92.69 E0.15389
G1 X75.005 Y93.231 E0.16379
G1 X75.078 Y94.486 E0.18679
G1 X75.217 Y98.073 E0.25245
G1 X75.235 Y100.807 E0.30247
G1 X75.175 Y103.53 E0.35229
G1 X75.037 Y106.25 E0.40211
G1 X75.006 Y106.741 E0.41111
G1 X75.005 Y107.186 E0.41925
G1 X75.077 Y107.722 E0.42915
G1 X75.226 Y108.242 E0.43904
G1 X75.451 Y108.734 E0.44894
G1 X75.769 Y109.313 E0.46102
G1 X77.845 Y112.979 E0.53809
G1 X78.335 Y113.811 E0.55575
G1 X78.614 Y114.218 E0.56478
G1 X78.979 Y114.617 E0.57467
G1 X79.4 Y114.958 E0.58458
G1 X80.195 Y115.511 E0.6023
G1 X82.538 Y117.194 E0.65507
G1 X84.691 Y118.838 E0.70462
G1 X86.824 Y120.564 E0.75482
G1 X88.891 Y122.336 E0.80462
G1 X90.907 Y124.165 E0.85442
G1 X92.87 Y126.051 E0.90421
G1 X94.793 Y128.006 E0.95438
G1 X95.178 Y128.346 E0.96377
G1 X95.464 Y128.565 E0.97036
G1 X95.785 Y128.785 E0.97748
G1 X96.266 Y129.031 E0.98737
G1 X96.779 Y129.204 E0.99727
G1 X97.311 Y129.299 E1.00716
G1 X97.852 Y129.315 E1.01706
G1 X98.122 Y129.303 E1.022
G1 X98.877 Y129.19 E1.03597
G1 X99.389 Y129.016 E1.04586
G1 X99.87 Y128.768 E1.05576
G1 X100.309 Y128.453 E1.06564
G1 X101.222 Y127.688 E1.08743
G1 X101.369 Y127.584 E1.09072
G1 X103.195 Y126.07 E1.13412
G1 X105.33 Y124.415 E1.18353
G1 X107.551 Y122.792 E1.23385
G1 X109.758 Y121.272 E1.28287
G1 X112.083 Y119.767 E1.33354
G1 X114.406 Y118.354 E1.38328
G1 X116.755 Y117.014 E1.43275
G1 X119.169 Y115.728 E1.48278
G1 X120.202 Y115.195 E1.50405
G1 X120.581 Y114.969 E1.51212
G1 X121.004 Y114.633 E1.522
G1 X121.374 Y114.239 E1.53189
G1 X121.681 Y113.794 E1.54178
G1 X122.037 Y113.187 E1.55465
G1 X124.29 Y109.211 E1.63825
G1 X124.561 Y108.709 E1.64868
G1 X124.732 Y108.346 E1.65603
G1 X124.898 Y107.832 E1.66591
G1 X124.986 Y107.298 E1.67581
G1 X124.995 Y106.757 E1.6857
G1 X124.922 Y105.502 E1.7087
G1 X124.783 Y101.915 E1.77437
G1 X124.765 Y99.181 E1.82438
G1 X124.825 Y96.458 E1.87421
G1 X124.963 Y93.738 E1.92403
G1 X124.994 Y93.248 E1.93301
G1 X124.995 Y92.805 E1.94111
G1 X124.924 Y92.269 E1.951
G1 X124.775 Y91.749 E1.9609
G1 X124.55 Y91.257 E1.97079
G1 X124.232 Y90.677 E1.98289
G1 X122.107 Y86.926 E2.06176
G1 X121.663 Y86.175 E2.07772
G1 X121.255 Y85.615 E2.09039
G1 X120.868 Y85.237 E2.10029
G1 X120.43 Y84.921 E2.11017
G1 X119.957 Y84.63 E2.12033
G1 X118.75 Y83.912 E2.14602
G1 X116.454 Y82.46 E2.19571
G1 X114.205 Y80.948 E2.24529
G1 X111.977 Y79.356 E2.29538
G1 X109.802 Y77.707 E2.34531
G1 X107.667 Y75.991 E2.39542
G1 X105.604 Y74.236 E2.44496
G1 X103.541 Y72.377 E2.49576
G1 X102.703 Y71.6 E2.51667
G1 X102.48 Y71.409 E2.52204
G1 X102.031 Y71.106 E2.53195
G1 X101.543 Y70.873 E2.54184
G1 X101.026 Y70.715 E2.55173
G1 X100.762 Y70.655 E2.55668
G1 X100.408 Y70.593 E2.56326
G1 X99.868 Y70.565 E2.57315
G1 X99.33 Y70.617 E2.58304
G1 X98.806 Y70.748 E2.59292
G1 X98.306 Y70.955 E2.60282
G1 X97.992 Y71.113 E2.60925
G1 X97.582 Y71.353 E2.61794
G1 X97.159 Y71.689 E2.62782
G1 X95.081 Y73.602 E2.67949
G1 X92.995 Y75.417 E2.73007
G1 X90.893 Y77.143 E2.77982
G1 X88.771 Y78.786 E2.82892
G1 X86.54 Y80.417 E2.87947
G1 X84.303 Y81.957 E2.92915
G1 X82.011 Y83.44 E2.97909
G1 X79.577 Y84.918 E3.03118
G1 X79 Y85.352 E3.04439
G0 X79.345 Y85.633
G1 X78.992 Y85.998 E3.05368
G1 X78.701 Y86.414 E3.06297
G1 X78.318 Y87.066 E3.0768
G1 X76.093 Y90.994 E3.15938
G1 X75.826 Y91.488 E3.16965
G1 X75.712 Y91.72 E3.17438
G1 X75.545 Y92.199 E3.18366
G1 X75.455 Y92.698 E3.19294
G1 X75.444 Y93.205 E3.20222
G1 X75.515 Y94.429 E3.22464
G1 X75.657 Y98.084 E3.29156
G1 X75.675 Y100.813 E3.34148
G1 X75.615 Y103.527 E3.39114
G1 X75.476 Y106.278 E3.44153
G1 X75.445 Y106.769 E3.45053
G1 X75.44 Y107.066 E3.45596
G1 X75.495 Y107.57 E3.46523
G1 X75.628 Y108.06 E3.47452
G1 X75.837 Y108.522 E3.4838
G1 X76.175 Y109.138 E3.49665
G1 X78.256 Y112.81 E3.57386
G1 X78.714 Y113.587 E3.59036
G1 X78.921 Y113.896 E3.59716
G1 X79.258 Y114.275 E3.60644
G1 X79.651 Y114.596 E3.61572
G1 X80.425 Y115.134 E3.63297
G1 X82.787 Y116.831 E3.68617
G1 X84.982 Y118.507 E3.73669
G1 X87.116 Y120.234 E3.78691
G1 X89.159 Y121.986 E3.83614
G1 X91.215 Y123.851 E3.88692
G1 X93.178 Y125.736 E3.93671
G1 X95.107 Y127.698 E3.98704
G1 X95.445 Y127.997 E3.99529
G1 X95.731 Y128.216 E4.00188
G1 X96.351 Y128.588 E4.01511
G1 X96.827 Y128.762 E4.02438
G1 X97.325 Y128.858 E4.03366
G1 X97.832 Y128.876 E4.04294
G1 X98.102 Y128.864 E4.04788
G1 X98.675 Y128.786 E4.05846
G1 X99.159 Y128.635 E4.06774
G1 X99.613 Y128.41 E4.07701
G1 X100.027 Y128.116 E4.08629
G1 X100.956 Y127.338 E4.10846
G1 X101.088 Y127.245 E4.11141
G1 X102.909 Y125.736 E4.15468
G1 X105.094 Y124.042 E4.20525
G1 X107.27 Y122.451 E4.25456
G1 X109.545 Y120.884 E4.3051
G1 X111.825 Y119.408 E4.35478
G1 X114.17 Y117.982 E4.40499
G1 X116.541 Y116.63 E4.45492
G1 X118.967 Y115.337 E4.50521
G1 X120 Y114.804 E4.52647
G1 X120.255 Y114.657 E4.53185
G1 X120.659 Y114.352 E4.54111
G1 X121.011 Y113.987 E4.55039
G1 X121.302 Y113.571 E4.55968
G1 X121.682 Y112.922 E4.57344
G1 X123.907 Y108.994 E4.65602
G1 X124.174 Y108.5 E4.66629
G1 X124.288 Y108.268 E4.67102
G1 X124.455 Y107.789 E4.6803
G1 X124.545 Y107.29 E4.68957
G1 X124.556 Y106.783 E4.69885
G1 X124.485 Y105.559 E4.72128
G1 X124.343 Y101.904 E4.78819
G1 X124.325 Y99.175 E4.83811
G1 X124.385 Y96.461 E4.88777
G1 X124.524 Y93.71 E4.93816
G1 X124.555 Y93.22 E4.94714
G1 X124.56 Y92.925 E4.95254
G1 X124.505 Y92.421 E4.96181
G1 X124.373 Y91.931 E4.9711
G1 X124.164 Y91.469 E4.98037
G1 X123.825 Y90.85 E4.99328
G1 X121.728 Y87.15 E5.07108
G1 X121.284 Y86.399 E5.08704
G1 X120.967 Y85.954 E5.09704
G1 X120.609 Y85.594 E5.10632
G1 X120.199 Y85.295 E5.11561
G1 X119.684 Y84.979 E5.12666
G1 X118.542 Y84.3 E5.15096
G1 X116.2 Y82.819 E5.20165
G1 X113.94 Y81.299 E5.25148
G1 X111.708 Y79.704 E5.30166
G1 X109.536 Y78.058 E5.35151
G1 X107.398 Y76.34 E5.40169
G1 X105.318 Y74.571 E5.45164
G1 X103.269 Y72.724 E5.5021
G1 X102.404 Y71.922 E5.52368
G1 X101.867 Y71.52 E5.53595
G1 X101.413 Y71.295 E5.54522
G1 X100.929 Y71.144 E5.55449
G1 X100.665 Y71.084 E5.55945
G1 X99.973 Y71.004 E5.57219
G1 X99.467 Y71.041 E5.58147
G1 X98.973 Y71.156 E5.59075
G1 X98.504 Y71.348 E5.60002
G1 X98.19 Y71.506 E5.60645
G1 X97.856 Y71.7 E5.61351
G1 X97.456 Y72.013 E5.62281
G1 X95.357 Y73.945 E5.67499
G1 X93.288 Y75.745 E5.72516
G1 X91.188 Y77.47 E5.77487
G1 X88.984 Y79.177 E5.82587
G1 X86.813 Y80.764 E5.87506
G1 X84.563 Y82.313 E5.92503
G1 X82.227 Y83.824 E5.97593
G1 X79.806 Y85.294 E6.02774
G1 X79.345 Y85.633 E6.03821
;;retract;;
G1 F2400 E2.03821
;MESH:0_2
G0 F1500 X99.279 Y75.389
G0 X99.798 Y74.708
;TYPE:WALL-OUTER
G1 F2400 E6.03821
G1 F1375 X99.819 Y74.494 E6.0413
G1 X99.978 Y74.416 E6.04384
G1 X100.118 Y74.448 E6.0459
G1 X100.183 Y74.554 E6.04769
G1 X100.205 Y74.698 E6.04978
G1 X100.073 Y74.812 E6.05229
G1 X99.938 Y74.815 E6.05423
G1 X99.798 Y74.708 E6.05676
G0 F1500 X99.817 Y74.509
;;retract;;
G1 F2400 E2.05676
;MESH:0_0
G0 F1500 X99.195 Y75.325
G0 X94.67 Y86.013
G0 X95.017 Y87.039
G0 X91.247 Y90.438
G0 X89.983 Y91.791
G0 X89.082 Y93.024
G0 X88.241 Y94.585
G0 X87.809 Y95.652
G0 X86.603 Y100.295
G1 F2400 E6.05676
G0 F1500 X86.376 Y100.291
;TYPE:WALL-INNER
G1 F860.9 X86.392 Y99.181 E6.07693
G1 X86.511 Y98.064 E6.09734
G1 F866.5 X86.628 Y97.385 E6.10978
G1 F868.4 X86.71 Y96.979 E6.11724
G1 F862.7 X87 Y95.897 E6.13754
G1 F859 X87.372 Y94.873 E6.15738
G1 F864.6 X87.65 Y94.241 E6.16987
G1 F868.4 X87.84 Y93.842 E6.17783
G1 F857.1 X88.421 Y92.797 E6.19965
G1 F853.4 X89.003 Y91.948 E6.21851
G1 F864.6 X89.482 Y91.329 E6.23267
G1 F868.4 X89.688 Y91.079 E6.2385
G1 F859 X90.439 Y90.282 E6.25844
G1 F870.3 X90.685 Y90.051 E6.26451
G1 F864.6 X91.288 Y89.517 E6.27908
G1 F862.7 X91.942 Y89.007 E6.29411
G1 F870.3 X92.165 Y88.842 E6.2991
G1 F859 X93.095 Y88.245 E6.31922
G1 F870.3 X93.451 Y88.046 E6.32655
G1 F866.5 X94.079 Y87.722 E6.3393
G1 F859 X95.106 Y87.272 E6.35972
G1 F860.9 X96.156 Y86.92 E6.37984
G1 F868.4 X96.625 Y86.794 E6.38859
G1 F866.5 X97.237 Y86.65 E6.39993
G1 F862.7 X98.33 Y86.465 E6.42003
G1 X99.418 Y86.379 E6.43982
G1 F866.5 X100 Y86.37 E6.45032
G1 X100.546 Y86.378 E6.46018
G1 F860.9 X101.634 Y86.46 E6.48
G1 X102.762 Y86.65 E6.50079
G1 F866.5 X103.375 Y86.794 E6.51215
G1 F868.4 X103.808 Y86.91 E6.52022
G1 F860.9 X104.908 Y87.277 E6.54129
G1 F859 X105.905 Y87.714 E6.56111
G1 F866.5 X106.549 Y88.046 E6.57419
G1 F870.3 X106.884 Y88.232 E6.58108
G1 F857.1 X107.877 Y88.868 E6.60259
G1 F851.6 X108.703 Y89.509 E6.6218
G1 F862.7 X109.286 Y90.023 E6.63589
G1 F870.3 X109.519 Y90.24 E6.64161
G1 F860.9 X110.283 Y91.049 E6.66183
G1 F872.2 X110.514 Y91.328 E6.66832
G1 F866.5 X110.993 Y91.942 E6.68238
G1 F857.1 X111.609 Y92.853 E6.70244
G1 F859 X112.155 Y93.83 E6.72282
G1 F868.4 X112.331 Y94.2 E6.7302
G1 F866.5 X112.61 Y94.832 E6.74267
G1 F859 X112.999 Y95.89 E6.7632
G1 F862.7 X113.285 Y96.959 E6.78326
G1 F870.3 X113.383 Y97.442 E6.79211
G1 F868.4 X113.488 Y98.052 E6.80326
G1 F860.9 X113.606 Y99.149 E6.82331
G1 X113.625 Y100.242 E6.84317
G1 F866.5 X113.597 Y100.846 E6.85408
G1 X113.557 Y101.372 E6.8636
G1 F859 X113.413 Y102.436 E6.88315
G1 X113.15 Y103.565 E6.90426
G1 F866.5 X112.961 Y104.194 E6.91612
G1 F868.4 X112.816 Y104.629 E6.92437
G1 F859 X112.41 Y105.632 E6.94408
G1 F857.1 X111.898 Y106.635 E6.96462
G1 F864.6 X111.477 Y107.339 E6.97946
G1 F868.4 X111.309 Y107.6 E6.98505
G1 F859 X110.664 Y108.481 E7.00493
G1 F870.3 X110.481 Y108.701 E7.01008
G1 F864.6 X109.933 Y109.32 E7.02503
G1 X109.347 Y109.907 E7.04004
G1 F870.3 X109.131 Y110.112 E7.04539
G1 F859 X108.268 Y110.827 E7.06579
G1 F868.4 X107.993 Y111.028 E7.07193
G1 F864.6 X107.373 Y111.452 E7.08551
G1 F857.1 X106.421 Y112.017 E7.10572
G1 F860.9 X105.414 Y112.499 E7.126
G1 F870.3 X105.067 Y112.641 E7.13274
G1 F866.5 X104.38 Y112.897 E7.14597
G1 F860.9 X103.305 Y113.218 E7.16635
G1 F862.7 X102.219 Y113.438 E7.18644
G1 F868.4 X101.764 Y113.503 E7.19472
G1 F866.5 X101.137 Y113.573 E7.20611
G1 F862.7 X100.008 Y113.626 E7.2266
G1 X98.91 Y113.577 E7.24652
G1 F866.5 X98.295 Y113.511 E7.25769
G1 F868.4 X97.817 Y113.445 E7.26638
G1 F860.9 X96.721 Y113.224 E7.28669
G1 F859 X95.647 Y112.907 E7.30708
G1 F866.5 X94.993 Y112.665 E7.31967
G1 F868.4 X94.602 Y112.507 E7.32726
G1 F857.1 X93.528 Y111.993 E7.34899
G1 F853.4 X92.634 Y111.457 E7.36809
G1 F864.6 X92.009 Y111.031 E7.38177
G1 F866.5 X91.744 Y110.839 E7.38768
G1 F857.1 X90.876 Y110.118 E7.40827
G1 F870.3 X90.652 Y109.908 E7.41379
G1 F864.6 X90.079 Y109.334 E7.42846
G1 F862.7 X89.543 Y108.728 E7.44313
G1 F870.3 X89.347 Y108.496 E7.44858
G1 F859 X88.691 Y107.6 E7.4688
G1 F868.4 X88.485 Y107.279 E7.47567
G1 F864.6 X88.11 Y106.65 E7.48892
G1 F855.3 X87.603 Y105.662 E7.50923
G1 F859 X87.188 Y104.637 E7.52936
G1 F870.3 X87.039 Y104.193 E7.53778
G1 F868.4 X86.853 Y103.574 E7.54942
G1 F860.9 X86.593 Y102.456 E7.57027
G1 X86.443 Y101.379 E7.59003
G1 F866.5 X86.402 Y100.847 E7.59966
G1 X86.376 Y100.291 E7.60971
;;retract;;
G1 F2400 E3.60971
G0 F1500 X85.923 Y100.301
;TYPE:WALL-OUTER
G1 F2400 E7.60971
G1 F900 X85.945 Y99.154 E7.62859
G1 X86.064 Y97.99 E7.64786
G1 X86.27 Y96.879 E7.66646
G1 X86.575 Y95.754 E7.68565
G1 X86.955 Y94.693 E7.70421
G1 X87.441 Y93.63 E7.72345
G1 X88.001 Y92.626 E7.74238
G1 X88.642 Y91.673 E7.76128
G1 X89.347 Y90.784 E7.77996
G1 X90.13 Y89.953 E7.79876
G1 X90.998 Y89.168 E7.81803
G1 X91.914 Y88.468 E7.83701
G1 X92.874 Y87.85 E7.85581
G1 X93.866 Y87.322 E7.87431
G1 X94.945 Y86.854 E7.89367
G1 X96.037 Y86.483 E7.91266
G1 X97.146 Y86.207 E7.93148
G1 X98.284 Y86.02 E7.95046
G1 X99.409 Y85.926 E7.96905
G1 X100.573 Y85.926 E7.98821
G1 X101.697 Y86.017 E8.00678
G1 X102.853 Y86.207 E8.02607
G1 X103.944 Y86.478 E8.04457
G1 X105.06 Y86.855 E8.06397
G1 X106.11 Y87.309 E8.0828
G1 X107.121 Y87.847 E8.10166
G1 X108.088 Y88.468 E8.12058
G1 X109 Y89.165 E8.13947
G1 X109.841 Y89.924 E8.15813
